packages/icons/src/svg/sort-91.svg

<svg xmlns="http://www.w3.org/2000/svg" viewBox="0 0 16 16"><path d="M3,16,0,12H2V0H4V12H6Zm10-6H12v1H11v1h1v3H11v1h3V15H13Zm2-6.17649a5.50057,5.50057,0,0,1-.28463,1.87027,3.7865,3.7865,0,0,1-.75453,1.29865,2.984,2.984,0,0,1-1.08346.75864A3.306,3.306,0,0,1,11.62206,8a3.62743,3.62743,0,0,1-1.47281-.27922,4.0011,4.0011,0,0,1-1.03916-.64406l.96532-1.06816a2.34306,2.34306,0,0,0,.61893.382,1.88854,1.88854,0,0,0,1.454.03688,1.49707,1.49707,0,0,0,.58134-.41225,2.20229,2.20229,0,0,0,.41486-.75338,4.07173,4.07173,0,0,0,.18528-1.14718,3.39138,3.39138,0,0,1-.94652.62562,2.37582,2.37582,0,0,1-.94652.22522,3.08432,3.08432,0,0,1-.96532-.1462A2.15845,2.15845,0,0,1,9.69814,4.382a1.99363,1.99363,0,0,1-.51287-.7402A2.75363,2.75363,0,0,1,9,2.58545,2.44921,2.44921,0,0,1,9.22824,1.512,2.51483,2.51483,0,0,1,9.84583.69279,2.70306,2.70306,0,0,1,10.744.17649,3.262,3.262,0,0,1,11.81942,0a3.32236,3.32236,0,0,1,1.18281.21864A2.79607,2.79607,0,0,1,14.0226.89825a3.34226,3.34226,0,0,1,.71157,1.18406A5.052,5.052,0,0,1,15,3.82351ZM13.3748,2.6052a1.37506,1.37506,0,0,0-2.74961,0,1.37506,1.37506,0,0,0,2.74961,0Z"/></svg>

<svg xmlns="http://www.w3.org/2000/svg" viewBox="0 0 16 16">
	<path d="M3 16l-3-4h2V0h2v12h2zm10-6h-1v1h-1v1h1v3h-1v1h3v-1h-1zm2-6.176a5.5 5.5 0 0 1-.285 1.87 3.787 3.787 0 0 1-.754 1.298 2.984 2.984 0 0 1-1.084.76A3.306 3.306 0 0 1 11.622 8a3.627 3.627 0 0 1-1.473-.28 4.001 4.001 0 0 1-1.039-.643l.965-1.068a2.343 2.343 0 0 0 .62.382 1.889 1.889 0 0 0 1.453.036 1.497 1.497 0 0 0 .582-.412 2.202 2.202 0 0 0 .415-.753 4.072 4.072 0 0 0 .185-1.147 3.391 3.391 0 0 1-.947.625 2.376 2.376 0 0 1-.946.225 3.084 3.084 0 0 1-.966-.146 2.158 2.158 0 0 1-.773-.437 1.994 1.994 0 0 1-.513-.74A2.754 2.754 0 0 1 9 2.585a2.45 2.45 0 0 1 .228-1.073 2.515 2.515 0 0 1 .618-.82 2.703 2.703 0 0 1 .898-.516A3.262 3.262 0 0 1 11.819 0a3.322 3.322 0 0 1 1.183.219 2.796 2.796 0 0 1 1.02.68 3.342 3.342 0 0 1 .712 1.183A5.052 5.052 0 0 1 15 3.824zm-1.625-1.219a1.375 1.375 0 0 0-2.75 0 1.375 1.375 0 0 0 2.75 0z"/>
</svg>
